X:1
T:Gleannt\'an Frolics
M:12/8
L:1/8
R:slide
D:The Smoky Chimney, track 1(b)
K:D
ABA AFA d2 A d2 A|def g2 e fed B2 A|
d2 B AFA d2 c d2 e|1f2 b afd e3 d2 B:|2f2 b afd e3 def||
gfg b2 g fef a2 f|e2 f a2 f efd B2 A|
d2 B AFA d2 c d2 e|1f2 b afd e3 def:|2f2 b afd e3 d3||
